!!! OTL: Literature153
!!! Chapter: 5
!!! Section: IV
!!! Page: 382
!!! Mode: 
!!! Encoder: AR
**kern
*staff1
=1-
!!pagebreak:original
*clefG2
*k[]
*a:
*M2/2
4a#/
4f#/
4c/
4B/
=2
4d#/
4e#/
2dn/
=3
4a#/
4f#/
4c/
4B/
=4
4d#/
4e#/
2dn/
=5
4g/
4a/
2f#/
=6
4g/
4a/
4e-/
4fn/
=7
!!linebreak:original
4c/
4d/
2c-/
=8
4g-/
4a-/
4e-/
4B-/
=9
4c/
4f/
2bn\
=10
4b-\
4cc\
4g/
4d/
=11
4e/
4a/
[2dd\
=12
4dd\]
4cc\
4b-\
[4a/
=13
!!linebreak:original
4a/]
4g/
4f#/
[4e/
=14
4e/]
4d/
4c#/
[4cn/
=15
4c/]
4B/
4g/
4d#/
=16
4a#/
4f#/
4c/
4B/
=17
4a#/
4f#/
2fn/
=18
4a#/
4f#/
2fn/
=19
!!linebreak:original
4a#/
4f#/
4c/
4B/
=20
4d#/
4e#/
4dn/
[4f#/
=21
4f#/]
4e#/
4d/
[4f#/
=22
!!linebreak:original
4f#/]
4fn/
4d/
4B/
=23
4d#/
4e/
[2dn/
=24
4d/]
[4d#/
2d#/]
=25
2e#/
2r
==
*-
